collectives/static/img/icon/ionicon/ios-clock.svg

<svg enable-background="new 0 0 512 512" viewBox="0 0 512 512" xmlns="http://www.w3.org/2000/svg"><path d="m403.1 108.9c-81.2-81.2-212.9-81.2-294.2 0s-81.2 212.9 0 294.2c81.2 81.2 212.9 81.2 294.2 0 81.2-81.2 81.2-213 0-294.2zm-313.5 154.9c-5.6 1.1-10.5-3.8-9.4-9.4.6-3.1 3.1-5.7 6.3-6.3 5.6-1.1 10.5 3.8 9.4 9.4-.6 3.2-3.2 5.7-6.3 6.3zm26.2 82.2c-4.3 3.7-11 1.9-12.8-3.5-1-3-.1-6.5 2.3-8.5 4.3-3.7 11-1.9 12.8 3.5 1 3 .1 6.4-2.3 8.5zm2.3-171.5c-1.9 5.4-8.5 7.2-12.8 3.5-2.4-2.1-3.3-5.5-2.3-8.5 1.9-5.4 8.5-7.2 12.8-3.5 2.4 2.1 3.3 5.5 2.3 8.5zm61.5 229.5c-1.9 5.4-8.5 7.2-12.8 3.5-2.4-2.1-3.3-5.5-2.3-8.5 1.9-5.4 8.5-7.2 12.8-3.5 2.4 2.1 3.3 5.5 2.3 8.5zm-2.3-287.5c-4.3 3.7-11 1.9-12.8-3.5-1-3-.1-6.5 2.3-8.5 4.3-3.7 11-1.9 12.8 3.5 1 3 .1 6.4-2.3 8.5zm35.4 76.3c-2.3-3.8-1-8.7 2.7-11 3.8-2.3 8.7-1 11 2.7l33.7 62.3c2.5 4.7 3.9 9.9 3.9 15.2v122c0 5-3 8-8 8s-8-3-8-8v-122c0-2.7-.7-5.3-1.9-7.6zm44.9 239c-5.6 1.1-10.5-3.8-9.4-9.4.6-3.1 3.1-5.7 6.3-6.3 5.6-1.1 10.5 3.8 9.4 9.4-.6 3.2-3.2 5.7-6.3 6.3zm0-336c-5.6 1.1-10.5-3.8-9.4-9.4.6-3.1 3.1-5.7 6.3-6.3 5.6-1.1 10.5 3.8 9.4 9.4-.6 3.2-3.2 5.7-6.3 6.3zm87.7 311.7c-4.3 3.7-11 1.9-12.8-3.5-1-3-.1-6.5 2.3-8.5 4.3-3.7 11-1.9 12.8 3.5 1 3 .1 6.4-2.3 8.5zm2.3-294.5c-1.9 5.4-8.5 7.2-12.8 3.5-2.4-2.1-3.3-5.5-2.3-8.5 1.9-5.4 8.5-7.2 12.8-3.5 2.4 2.1 3.3 5.5 2.3 8.5zm61.5 229.5c-1.9 5.4-8.5 7.2-12.8 3.5-2.4-2.1-3.3-5.5-2.3-8.5 1.9-5.4 8.5-7.2 12.8-3.5 2.4 2.1 3.3 5.5 2.3 8.5zm-2.3-164.5c-4.3 3.7-11 1.9-12.8-3.5-1-3-.1-6.5 2.3-8.5 4.3-3.7 11-1.9 12.8 3.5 1 3 .1 6.4-2.3 8.5zm18.8 85.8c-5.6 1.1-10.5-3.8-9.4-9.4.6-3.1 3.1-5.7 6.3-6.3 5.6-1.1 10.5 3.8 9.4 9.4-.6 3.2-3.2 5.7-6.3 6.3z"/></svg>

<?xml version="1.0" encoding="utf-8"?>
<!-- Generator: Adobe Illustrator 22.0.1, SVG Export Plug-In . SVG Version: 6.00 Build 0)  -->
<svg version="1.1" id="Layer_1" xmlns="http://www.w3.org/2000/svg" xmlns:xlink="http://www.w3.org/1999/xlink" x="0px" y="0px"
	 viewBox="0 0 512 512" style="enable-background:new 0 0 512 512;" xml:space="preserve">
<path d="M403.1,108.9c-81.2-81.2-212.9-81.2-294.2,0c-81.3,81.2-81.2,212.9,0,294.2c81.2,81.2,212.9,81.2,294.2,0
	C484.3,321.9,484.3,190.1,403.1,108.9z M89.6,263.8c-5.6,1.1-10.5-3.8-9.4-9.4c0.6-3.1,3.1-5.7,6.3-6.3c5.6-1.1,10.5,3.8,9.4,9.4
	C95.3,260.7,92.7,263.2,89.6,263.8z M115.8,346c-4.3,3.7-11,1.9-12.8-3.5c-1-3-0.1-6.5,2.3-8.5c4.3-3.7,11-1.9,12.8,3.5
	C119.1,340.5,118.2,343.9,115.8,346z M118.1,174.5c-1.9,5.4-8.5,7.2-12.8,3.5c-2.4-2.1-3.3-5.5-2.3-8.5c1.9-5.4,8.5-7.2,12.8-3.5
	C118.2,168.1,119.1,171.5,118.1,174.5z M179.6,404c-1.9,5.4-8.5,7.2-12.8,3.5c-2.4-2.1-3.3-5.5-2.3-8.5c1.9-5.4,8.5-7.2,12.8-3.5
	C179.7,397.6,180.6,401,179.6,404z M177.3,116.5c-4.3,3.7-11,1.9-12.8-3.5c-1-3-0.1-6.5,2.3-8.5c4.3-3.7,11-1.9,12.8,3.5
	C180.6,111,179.7,114.4,177.3,116.5z M212.7,192.8c-2.3-3.8-1-8.7,2.7-11c3.8-2.3,8.7-1,11,2.7l33.7,62.3c2.5,4.7,3.9,9.9,3.9,15.2
	v122c0,5-3,8-8,8c-5,0-8-3-8-8V262c0-2.7-0.7-5.3-1.9-7.6L212.7,192.8z M257.6,431.8c-5.6,1.1-10.5-3.8-9.4-9.4
	c0.6-3.1,3.1-5.7,6.3-6.3c5.6-1.1,10.5,3.8,9.4,9.4C263.3,428.7,260.7,431.2,257.6,431.8z M257.6,95.8c-5.6,1.1-10.5-3.8-9.4-9.4
	c0.6-3.1,3.1-5.7,6.3-6.3c5.6-1.1,10.5,3.8,9.4,9.4C263.3,92.7,260.7,95.2,257.6,95.8z M345.3,407.5c-4.3,3.7-11,1.9-12.8-3.5
	c-1-3-0.1-6.5,2.3-8.5c4.3-3.7,11-1.9,12.8,3.5C348.6,402,347.7,405.4,345.3,407.5z M347.6,113c-1.9,5.4-8.5,7.2-12.8,3.5
	c-2.4-2.1-3.3-5.5-2.3-8.5c1.9-5.4,8.5-7.2,12.8-3.5C347.7,106.6,348.6,110,347.6,113z M409.1,342.5c-1.9,5.4-8.5,7.2-12.8,3.5
	c-2.4-2.1-3.3-5.5-2.3-8.5c1.9-5.4,8.5-7.2,12.8-3.5C409.2,336.1,410.1,339.5,409.1,342.5z M406.8,178c-4.3,3.7-11,1.9-12.8-3.5
	c-1-3-0.1-6.5,2.3-8.5c4.3-3.7,11-1.9,12.8,3.5C410.1,172.5,409.2,175.9,406.8,178z M425.6,263.8c-5.6,1.1-10.5-3.8-9.4-9.4
	c0.6-3.1,3.1-5.7,6.3-6.3c5.6-1.1,10.5,3.8,9.4,9.4C431.3,260.7,428.7,263.2,425.6,263.8z"/>
</svg>
